austria/municipalities/40922.svg

<?xml version="1.0" encoding="UTF-8"?>
<!DOCTYPE svg PUBLIC "-//W3C//DTD SVG 1.1//EN" "http://www.w3.org/Graphics/SVG/1.1/DTD/svg11.dtd">
<svg xmlns="http://www.w3.org/2000/svg" version="1.1" width="100px" height="124px" style="shape-rendering:geometricPrecision; text-rendering:geometricPrecision; image-rendering:optimizeQuality; fill-rule:evenodd; clip-rule:evenodd" xmlns:xlink="http://www.w3.org/1999/xlink">
<g><path style="opacity:1" fill="#f9f9fa" d="M -0.5,-0.5 C 32.8333,-0.5 66.1667,-0.5 99.5,-0.5C 99.5,40.8333 99.5,82.1667 99.5,123.5C 66.1667,123.5 32.8333,123.5 -0.5,123.5C -0.5,82.1667 -0.5,40.8333 -0.5,-0.5 Z"/></g>
<g><path style="opacity:1" fill="#131211" d="M 0.5,0.5 C 33.1667,0.5 65.8333,0.5 98.5,0.5C 98.6666,26.8354 98.5,53.1688 98,79.5C 92.17,106.324 75.5033,120.657 48,122.5C 22.0936,119.257 6.42693,104.924 1,79.5C 0.500027,53.1688 0.33336,26.8354 0.5,0.5 Z"/></g>
<g><path style="opacity:1" fill="#0b110c" d="M 26.5,69.5 C 28.2726,70.3143 28.7726,71.6476 28,73.5C 24.7691,71.1605 21.2691,70.8271 17.5,72.5C 17.8333,71.8333 18.1667,71.1667 18.5,70.5C 21.3854,70.8064 24.0521,70.4731 26.5,69.5 Z"/></g>
<g><path style="opacity:1" fill="#772f3c" d="M 23.5,68.5 C 24.1667,68.5 24.8333,68.5 25.5,68.5C 26.1667,68.5 26.5,68.8333 26.5,69.5C 24.0521,70.4731 21.3854,70.8064 18.5,70.5C 20.1667,69.8333 21.8333,69.1667 23.5,68.5 Z"/></g>
<g><path style="opacity:1" fill="#171110" d="M 12.5,54.5 C 18.6286,53.3849 23.7953,55.3849 28,60.5C 29.1871,62.0444 29.5205,63.7111 29,65.5C 25.51,61.9527 21.3434,60.786 16.5,62C 15.6433,62.6891 14.9767,63.5224 14.5,64.5C 17.1071,65.3184 19.7737,65.8184 22.5,66C 23.9423,66.3768 24.9423,67.2101 25.5,68.5C 24.8333,68.5 24.1667,68.5 23.5,68.5C 20.4287,66.4375 17.0954,66.1042 13.5,67.5C 12.6089,63.0171 14.6089,60.3505 19.5,59.5C 27.5559,62.6643 28.2226,61.831 21.5,57C 18.0074,55.9963 14.8408,56.4963 12,58.5C 11.235,56.9343 11.4017,55.6009 12.5,54.5 Z"/></g>
<g><path style="opacity:1" fill="#170d0c" d="M 25.5,52.5 C 23.1843,51.8401 20.851,51.1734 18.5,50.5C 16.2345,51.4316 14.2345,52.7649 12.5,54.5C 13.2778,51.3904 15.2778,49.7237 18.5,49.5C 21.3598,49.555 23.6931,50.555 25.5,52.5 Z"/></g>
<g><path style="opacity:1" fill="#1d1615" d="M 37.5,23.5 C 39.3622,50.7831 40.0289,78.1164 39.5,105.5C 36.8333,105.5 34.1667,105.5 31.5,105.5C 30.7222,104.844 30.0556,104.011 29.5,103C 31.8154,96.3239 30.4821,90.6572 25.5,86C 23.765,85.3486 22.0983,85.5153 20.5,86.5C 19.1515,84.3886 19.4848,82.5553 21.5,81C 24.2356,80.5783 26.9023,80.5783 29.5,81C 25.5718,75.8402 21.2385,75.3402 16.5,79.5C 16.1667,78.5 15.8333,77.5 15.5,76.5C 15.3402,74.6455 16.0069,73.3121 17.5,72.5C 16.7822,74.1368 16.6155,75.8034 17,77.5C 21.8061,74.5204 26.1395,75.1871 30,79.5C 31.1871,81.0444 31.5205,82.7111 31,84.5C 27.4777,81.0516 23.9777,80.885 20.5,84C 28.9237,83.9259 32.5904,88.0926 31.5,96.5C 31.4677,98.7588 31.1344,100.925 30.5,103C 33.146,103.497 35.8127,103.664 38.5,103.5C 37.2555,87.5225 37.2555,71.5225 38.5,55.5C 38.0451,45.7977 37.2118,36.1311 36,26.5C 35.1188,20.2356 32.2854,15.0689 27.5,11C 24.6492,9.71138 21.6492,9.21138 18.5,9.5C 19.1342,8.05322 20.3009,7.38655 22,7.5C 24.3207,7.90949 26.4874,8.74282 28.5,10C 32.5707,13.8823 35.5707,18.3823 37.5,23.5 Z"/></g>
<g><path style="opacity:1" fill="#f0f2f3" d="M 18.5,9.5 C 21.6492,9.21138 24.6492,9.71138 27.5,11C 32.2854,15.0689 35.1188,20.2356 36,26.5C 37.2118,36.1311 38.0451,45.7977 38.5,55.5C 37.2555,71.5225 37.2555,87.5225 38.5,103.5C 35.8127,103.664 33.146,103.497 30.5,103C 31.1344,100.925 31.4677,98.7588 31.5,96.5C 32.5904,88.0926 28.9237,83.9259 20.5,84C 23.9777,80.885 27.4777,81.0516 31,84.5C 31.5205,82.7111 31.1871,81.0444 30,79.5C 26.1395,75.1871 21.8061,74.5204 17,77.5C 16.6155,75.8034 16.7822,74.1368 17.5,72.5C 21.2691,70.8271 24.7691,71.1605 28,73.5C 28.7726,71.6476 28.2726,70.3143 26.5,69.5C 26.5,68.8333 26.1667,68.5 25.5,68.5C 24.9423,67.2101 23.9423,66.3768 22.5,66C 19.7737,65.8184 17.1071,65.3184 14.5,64.5C 14.9767,63.5224 15.6433,62.6891 16.5,62C 21.3434,60.786 25.51,61.9527 29,65.5C 29.5205,63.7111 29.1871,62.0444 28,60.5C 23.7953,55.3849 18.6286,53.3849 12.5,54.5C 14.2345,52.7649 16.2345,51.4316 18.5,50.5C 20.851,51.1734 23.1843,51.8401 25.5,52.5C 26.8352,54.903 28.5019,56.2363 30.5,56.5C 28.7556,48.4243 23.7556,43.7576 15.5,42.5C 16.5271,40.976 18.0271,40.3094 20,40.5C 21.8784,40.6962 23.7117,41.0295 25.5,41.5C 30.8872,49.5897 31.7205,48.9231 28,39.5C 24.8856,35.0414 20.7189,32.2081 15.5,31C 18.4226,28.2359 21.7559,27.7359 25.5,29.5C 28.147,32.117 30.3137,35.117 32,38.5C 31.0105,29.0039 25.8438,23.0039 16.5,20.5C 23.0959,18.214 27.9292,20.214 31,26.5C 31.4798,23.1369 30.3131,20.4703 27.5,18.5C 27.4894,16.9826 26.8228,15.8159 25.5,15C 22.7536,13.2503 19.7536,12.2503 16.5,12C 17.3805,11.2917 18.0472,10.4584 18.5,9.5 Z"/></g>
<g><path style="opacity:1" fill="#1a1414" d="M 25.5,41.5 C 23.7117,41.0295 21.8784,40.6962 20,40.5C 18.0271,40.3094 16.5271,40.976 15.5,42.5C 23.7556,43.7576 28.7556,48.4243 30.5,56.5C 28.5019,56.2363 26.8352,54.903 25.5,52.5C 26.2389,52.631 26.9056,52.4643 27.5,52C 24.3063,46.5307 19.6397,44.6973 13.5,46.5C 12.9426,40.8946 15.6093,38.3946 21.5,39C 23.3197,39.2004 24.653,40.0337 25.5,41.5 Z"/></g>
<g><path style="opacity:1" fill="#2c1d1d" d="M 25.5,29.5 C 21.7559,27.7359 18.4226,28.2359 15.5,31C 20.7189,32.2081 24.8856,35.0414 28,39.5C 31.7205,48.9231 30.8872,49.5897 25.5,41.5C 26.2389,41.631 26.9056,41.4643 27.5,41C 25.5,39 23.5,37 21.5,35C 18.5255,33.7022 15.5255,33.2022 12.5,33.5C 15.2051,26.0792 19.5384,24.7458 25.5,29.5 Z"/></g>
<g><path style="opacity:1" fill="#201e1d" d="M 27.5,18.5 C 30.3131,20.4703 31.4798,23.1369 31,26.5C 27.9292,20.214 23.0959,18.214 16.5,20.5C 25.8438,23.0039 31.0105,29.0039 32,38.5C 30.3137,35.117 28.147,32.117 25.5,29.5C 26.2389,29.631 26.9056,29.4643 27.5,29C 23.566,24.507 18.8993,22.1737 13.5,22C 17.0592,17.2549 21.3925,16.4216 26.5,19.5C 27.1067,19.3764 27.44,19.0431 27.5,18.5 Z"/></g>
<g><path style="opacity:1" fill="#718285" d="M 96.5,3.5 C 81.1667,3.5 65.8333,3.5 50.5,3.5C 50.5,42.5 50.5,81.5 50.5,120.5C 49.5014,81.3369 49.1681,42.0035 49.5,2.5C 65.3422,2.17038 81.0089,2.50372 96.5,3.5 Z"/></g>
<g><path style="opacity:1" fill="#df012c" d="M 47.5,3.5 C 48.4985,41.9964 48.8319,80.6631 48.5,119.5C 47.1667,119.5 45.8333,119.5 44.5,119.5C 44.3048,115.808 42.3048,113.974 38.5,114C 37.3418,112.638 37.3418,111.138 38.5,109.5C 36.2534,108.626 33.9201,108.292 31.5,108.5C 31.5,107.5 31.5,106.5 31.5,105.5C 34.1667,105.5 36.8333,105.5 39.5,105.5C 40.0289,78.1164 39.3622,50.7831 37.5,23.5C 39.966,21.0792 39.966,18.5792 37.5,16C 38.9915,13.3788 39.6582,10.5455 39.5,7.5C 42.1667,7.5 44.8333,7.5 47.5,7.5C 47.5,6.16667 47.5,4.83333 47.5,3.5 Z"/></g>
<g><path style="opacity:1" fill="#d80d2c" d="M 47.5,3.5 C 47.5,4.83333 47.5,6.16667 47.5,7.5C 44.8333,7.5 42.1667,7.5 39.5,7.5C 39.6582,10.5455 38.9915,13.3788 37.5,16C 39.966,18.5792 39.966,21.0792 37.5,23.5C 35.5707,18.3823 32.5707,13.8823 28.5,10C 26.4874,8.74282 24.3207,7.90949 22,7.5C 20.3009,7.38655 19.1342,8.05322 18.5,9.5C 16.0882,9.69408 15.0882,11.0274 15.5,13.5C 19.9755,13.9927 23.9755,15.6594 27.5,18.5C 27.44,19.0431 27.1067,19.3764 26.5,19.5C 21.3925,16.4216 17.0592,17.2549 13.5,22C 18.8993,22.1737 23.566,24.507 27.5,29C 26.9056,29.4643 26.2389,29.631 25.5,29.5C 19.5384,24.7458 15.2051,26.0792 12.5,33.5C 15.5255,33.2022 18.5255,33.7022 21.5,35C 23.5,37 25.5,39 27.5,41C 26.9056,41.4643 26.2389,41.631 25.5,41.5C 24.653,40.0337 23.3197,39.2004 21.5,39C 15.6093,38.3946 12.9426,40.8946 13.5,46.5C 19.6397,44.6973 24.3063,46.5307 27.5,52C 26.9056,52.4643 26.2389,52.631 25.5,52.5C 23.6931,50.555 21.3598,49.555 18.5,49.5C 15.2778,49.7237 13.2778,51.3904 12.5,54.5C 11.4017,55.6009 11.235,56.9343 12,58.5C 14.8408,56.4963 18.0074,55.9963 21.5,57C 28.2226,61.831 27.5559,62.6643 19.5,59.5C 14.6089,60.3505 12.6089,63.0171 13.5,67.5C 17.0954,66.1042 20.4287,66.4375 23.5,68.5C 21.8333,69.1667 20.1667,69.8333 18.5,70.5C 18.1667,71.1667 17.8333,71.8333 17.5,72.5C 16.0069,73.3121 15.3402,74.6455 15.5,76.5C 15.8333,77.5 16.1667,78.5 16.5,79.5C 21.2385,75.3402 25.5718,75.8402 29.5,81C 26.9023,80.5783 24.2356,80.5783 21.5,81C 19.4848,82.5553 19.1515,84.3886 20.5,86.5C 22.0983,85.5153 23.765,85.3486 25.5,86C 30.4821,90.6572 31.8154,96.3239 29.5,103C 30.0556,104.011 30.7222,104.844 31.5,105.5C 31.5,106.5 31.5,107.5 31.5,108.5C 33.9201,108.292 36.2534,108.626 38.5,109.5C 37.3418,111.138 37.3418,112.638 38.5,114C 42.3048,113.974 44.3048,115.808 44.5,119.5C 21.2974,115.796 7.46406,102.463 3,79.5C 2.50003,54.1689 2.33336,28.8355 2.5,3.5C 17.5,3.5 32.5,3.5 47.5,3.5 Z"/></g>
<g><path style="opacity:1" fill="#28211b" d="M 18.5,9.5 C 18.0472,10.4584 17.3805,11.2917 16.5,12C 19.7536,12.2503 22.7536,13.2503 25.5,15C 26.8228,15.8159 27.4894,16.9826 27.5,18.5C 23.9755,15.6594 19.9755,13.9927 15.5,13.5C 15.0882,11.0274 16.0882,9.69408 18.5,9.5 Z"/></g>
<g><path style="opacity:1" fill="#f9fafa" d="M 96.5,3.5 C 96.6666,28.8355 96.5,54.1689 96,79.5C 92.894,97.2747 83.0607,109.775 66.5,117C 61.2604,118.676 55.9271,119.842 50.5,120.5C 50.5,81.5 50.5,42.5 50.5,3.5C 65.8333,3.5 81.1667,3.5 96.5,3.5 Z"/></g>
<g><path style="opacity:1" fill="#1b1918" d="M 75.5,9.5 C 71.7135,9.39323 68.7135,10.8932 66.5,14C 70.8713,14.8275 75.2047,14.6609 79.5,13.5C 79.1373,12.8165 78.8039,12.1499 78.5,11.5C 80.1207,11.7869 81.1207,12.7869 81.5,14.5C 80.675,15.3857 79.675,15.719 78.5,15.5C 78.5,20.1667 78.5,24.8333 78.5,29.5C 81.5,29.5 84.5,29.5 87.5,29.5C 87.5,31.5 87.5,33.5 87.5,35.5C 85.1667,35.5 82.8333,35.5 80.5,35.5C 80.6666,56.1694 80.5,76.836 80,97.5C 78,99.5 76,101.5 74,103.5C 72.0077,102.672 70.5077,101.339 69.5,99.5C 67.5112,78.5262 66.8445,57.1928 67.5,35.5C 64.8333,35.5 62.1667,35.5 59.5,35.5C 59.5,33.5 59.5,31.5 59.5,29.5C 62.1667,29.5 64.8333,29.5 67.5,29.5C 68.4861,25.03 68.8195,20.3633 68.5,15.5C 67.5,15.5 66.5,15.5 65.5,15.5C 64.475,15.1034 64.3083,14.4368 65,13.5C 67.7054,9.37359 71.2054,8.04026 75.5,9.5 Z"/></g>
<g><path style="opacity:1" fill="#dc032c" d="M 69.5,99.5 C 68.5118,78.2421 68.1785,56.9088 68.5,35.5C 69.8333,35.5 71.1667,35.5 72.5,35.5C 72.6666,57.1692 72.5,78.8359 72,100.5C 71.3292,99.7476 70.4959,99.4142 69.5,99.5 Z"/></g>
<g><path style="opacity:1" fill="#dd012d" d="M 74.5,35.5 C 75.8333,35.5 77.1667,35.5 78.5,35.5C 78.6666,56.1694 78.5,76.836 78,97.5C 77,98.5 76,99.5 75,100.5C 74.5,78.8359 74.3334,57.1692 74.5,35.5 Z"/></g>
<g><path style="opacity:1" fill="#8b4844" d="M 61.5,31.5 C 65.107,32.824 69.107,33.4907 73.5,33.5C 77.893,33.4907 81.893,32.824 85.5,31.5C 86.404,32.209 86.7373,33.209 86.5,34.5C 77.8333,34.5 69.1667,34.5 60.5,34.5C 60.2627,33.209 60.596,32.209 61.5,31.5 Z"/></g>
<g><path style="opacity:1" fill="#dc0624" d="M 61.5,31.5 C 69.5,31.5 77.5,31.5 85.5,31.5C 81.893,32.824 77.893,33.4907 73.5,33.5C 69.107,33.4907 65.107,32.824 61.5,31.5 Z"/></g>
<g><path style="opacity:1" fill="#cf1230" d="M 69.5,15.5 C 71.8333,15.5 74.1667,15.5 76.5,15.5C 76.5,20.1667 76.5,24.8333 76.5,29.5C 74.1667,29.5 71.8333,29.5 69.5,29.5C 69.5,24.8333 69.5,20.1667 69.5,15.5 Z"/></g>
<g><path style="opacity:1" fill="#697980" d="M 65.5,15.5 C 66.5,15.5 67.5,15.5 68.5,15.5C 68.8195,20.3633 68.4861,25.03 67.5,29.5C 68.0147,24.5203 67.348,19.8536 65.5,15.5 Z"/></g>
<g><path style="opacity:1" fill="#d51531" d="M 75.5,9.5 C 75.9731,10.9063 76.9731,11.573 78.5,11.5C 78.8039,12.1499 79.1373,12.8165 79.5,13.5C 75.2047,14.6609 70.8713,14.8275 66.5,14C 68.7135,10.8932 71.7135,9.39323 75.5,9.5 Z"/></g>
<g><path style="opacity:1" fill="#1a0e12" d="M 75.5,9.5 C 77.0269,9.42702 78.0269,10.0937 78.5,11.5C 76.9731,11.573 75.9731,10.9063 75.5,9.5 Z"/></g>
</svg>

<svg xmlns="http://www.w3.org/2000/svg" width="100" height="124" style="shape-rendering:geometricPrecision;text-rendering:geometricPrecision;image-rendering:optimizeQuality;fill-rule:evenodd;clip-rule:evenodd"><path style="opacity:1" fill="#f9f9fa" d="M-.5-.5h100v124H-.5V-.5z"/><path style="opacity:1" fill="#131211" d="M.5.5h98a3121 3121 0 0 1-.5 79c-5.83 26.824-22.497 41.157-50 43-25.906-3.243-41.573-17.576-47-43A3120.94 3120.94 0 0 1 .5.5z"/><path style="opacity:1" fill="#0b110c" d="M26.5 69.5c1.773.814 2.273 2.148 1.5 4-3.23-2.34-6.73-2.673-10.5-1l1-2c2.885.306 5.552-.027 8-1z"/><path style="opacity:1" fill="#772f3c" d="M23.5 68.5h2c.667 0 1 .333 1 1-2.448.973-5.115 1.306-8 1l5-2z"/><path style="opacity:1" fill="#171110" d="M12.5 54.5c6.129-1.115 11.295.885 15.5 6 1.187 1.544 1.52 3.211 1 5-3.49-3.547-7.657-4.714-12.5-3.5a7.253 7.253 0 0 0-2 2.5 34.208 34.208 0 0 0 8 1.5c1.442.377 2.442 1.21 3 2.5h-2c-3.071-2.063-6.405-2.396-10-1-.891-4.483 1.109-7.15 6-8 8.056 3.164 8.723 2.331 2-2.5-3.493-1.004-6.66-.504-9.5 1.5-.765-1.566-.598-2.9.5-4z"/><path style="opacity:1" fill="#170d0c" d="M25.5 52.5c-2.316-.66-4.649-1.327-7-2a18.178 18.178 0 0 0-6 4c.778-3.11 2.778-4.776 6-5 2.86.055 5.193 1.055 7 3z"/><path style="opacity:1" fill="#1d1615" d="M37.5 23.5a937.69 937.69 0 0 1 2 82h-8c-.778-.656-1.444-1.489-2-2.5 2.315-6.676.982-12.343-4-17-1.735-.651-3.402-.485-5 .5-1.349-2.111-1.015-3.945 1-5.5 2.736-.422 5.402-.422 8 0-3.928-5.16-8.262-5.66-13-1.5l-1-3c-.16-1.855.507-3.188 2-4-.718 1.637-.884 3.303-.5 5 4.806-2.98 9.14-2.313 13 2 1.187 1.544 1.52 3.211 1 5-3.522-3.448-7.022-3.615-10.5-.5 8.424-.074 12.09 4.093 11 12.5a23.253 23.253 0 0 1-1 6.5c2.646.497 5.313.664 8 .5a309.024 309.024 0 0 1 0-48 371.637 371.637 0 0 0-2.5-29c-.881-6.264-3.715-11.431-8.5-15.5-2.85-1.289-5.85-1.789-9-1.5.634-1.447 1.8-2.113 3.5-2 2.32.41 4.487 1.243 6.5 2.5 4.07 3.882 7.07 8.382 9 13.5z"/><path style="opacity:1" fill="#f0f2f3" d="M18.5 9.5c3.15-.289 6.15.211 9 1.5 4.785 4.069 7.619 9.236 8.5 15.5a371.637 371.637 0 0 1 2.5 29 309.024 309.024 0 0 0 0 48 32.462 32.462 0 0 1-8-.5 23.253 23.253 0 0 0 1-6.5c1.09-8.407-2.576-12.574-11-12.5 3.478-3.115 6.978-2.948 10.5.5.52-1.789.187-3.456-1-5-3.86-4.313-8.194-4.98-13-2-.384-1.697-.218-3.363.5-5 3.77-1.673 7.27-1.34 10.5 1 .773-1.852.273-3.186-1.5-4 0-.667-.333-1-1-1-.558-1.29-1.558-2.123-3-2.5a34.208 34.208 0 0 1-8-1.5 7.253 7.253 0 0 1 2-2.5c4.843-1.214 9.01-.047 12.5 3.5.52-1.789.187-3.456-1-5-4.205-5.115-9.371-7.115-15.5-6a18.178 18.178 0 0 1 6-4c2.351.673 4.684 1.34 7 2 1.335 2.403 3.002 3.736 5 4-1.744-8.076-6.744-12.742-15-14 1.027-1.524 2.527-2.19 4.5-2 1.878.196 3.712.53 5.5 1 5.387 8.09 6.22 7.423 2.5-2-3.114-4.459-7.281-7.292-12.5-8.5 2.923-2.764 6.256-3.264 10-1.5a33.704 33.704 0 0 1 6.5 9c-.99-9.496-6.156-15.496-15.5-18 6.596-2.286 11.43-.286 14.5 6 .48-3.363-.687-6.03-3.5-8-.01-1.517-.677-2.684-2-3.5a19.25 19.25 0 0 0-9-3c.88-.708 1.547-1.542 2-2.5z"/><path style="opacity:1" fill="#1a1414" d="M25.5 41.5a36.475 36.475 0 0 0-5.5-1c-1.973-.19-3.473.476-4.5 2 8.256 1.258 13.256 5.924 15 14-1.998-.264-3.665-1.597-5-4a2.428 2.428 0 0 0 2-.5c-3.194-5.47-7.86-7.303-14-5.5-.557-5.605 2.11-8.105 8-7.5 1.82.2 3.153 1.034 4 2.5z"/><path style="opacity:1" fill="#2c1d1d" d="M25.5 29.5c-3.744-1.764-7.077-1.264-10 1.5 5.219 1.208 9.386 4.041 12.5 8.5 3.72 9.423 2.887 10.09-2.5 2a2.428 2.428 0 0 0 2-.5l-6-6c-2.974-1.298-5.975-1.798-9-1.5 2.705-7.42 7.038-8.754 13-4z"/><path style="opacity:1" fill="#201e1d" d="M27.5 18.5c2.813 1.97 3.98 4.637 3.5 8-3.07-6.286-7.904-8.286-14.5-6 9.344 2.504 14.51 8.504 15.5 18a33.704 33.704 0 0 0-6.5-9 2.428 2.428 0 0 0 2-.5c-3.934-4.493-8.6-6.826-14-7 3.56-4.745 7.892-5.578 13-2.5.607-.124.94-.457 1-1z"/><path style="opacity:1" fill="#718285" d="M96.5 3.5h-46v117a3481.476 3481.476 0 0 1-1-118c15.842-.33 31.509.004 47 1z"/><path style="opacity:1" fill="#df012c" d="M47.5 3.5a3364.605 3364.605 0 0 1 1 116h-4c-.195-3.692-2.195-5.526-6-5.5-1.158-1.362-1.158-2.862 0-4.5a15.417 15.417 0 0 0-7-1v-3h8a937.69 937.69 0 0 0-2-82c2.466-2.42 2.466-4.92 0-7.5 1.492-2.621 2.158-5.454 2-8.5h8v-4z"/><path style="opacity:1" fill="#d80d2c" d="M47.5 3.5v4h-8c.158 3.046-.508 5.879-2 8.5 2.466 2.58 2.466 5.08 0 7.5-1.93-5.118-4.93-9.618-9-13.5A18.096 18.096 0 0 0 22 7.5c-1.7-.113-2.866.553-3.5 2-2.412.194-3.412 1.527-3 4 4.476.493 8.476 2.16 12 5-.06.543-.393.876-1 1-5.108-3.078-9.44-2.245-13 2.5 5.4.174 10.066 2.507 14 7a2.428 2.428 0 0 1-2 .5c-5.962-4.754-10.295-3.42-13 4 3.025-.298 6.026.202 9 1.5l6 6a2.428 2.428 0 0 1-2 .5c-.847-1.466-2.18-2.3-4-2.5-5.89-.605-8.557 1.895-8 7.5 6.14-1.803 10.806.03 14 5.5a2.428 2.428 0 0 1-2 .5c-1.807-1.945-4.14-2.945-7-3-3.222.224-5.222 1.89-6 5-1.098 1.1-1.265 2.434-.5 4 2.84-2.004 6.007-2.504 9.5-1.5 6.723 4.831 6.056 5.664-2 2.5-4.891.85-6.891 3.517-6 8 3.595-1.396 6.929-1.063 10 1l-5 2-1 2c-1.493.812-2.16 2.145-2 4l1 3c4.738-4.16 9.072-3.66 13 1.5-2.598-.422-5.264-.422-8 0-2.015 1.555-2.349 3.389-1 5.5 1.598-.985 3.265-1.151 5-.5 4.982 4.657 6.315 10.324 4 17 .556 1.011 1.222 1.844 2 2.5v3c2.42-.208 4.753.126 7 1-1.158 1.638-1.158 3.138 0 4.5 3.805-.026 5.805 1.808 6 5.5-23.203-3.704-37.036-17.037-41.5-40-.5-25.331-.667-50.665-.5-76h45z"/><path style="opacity:1" fill="#28211b" d="M18.5 9.5c-.453.958-1.12 1.792-2 2.5a19.25 19.25 0 0 1 9 3c1.323.816 1.99 1.983 2 3.5-3.524-2.84-7.524-4.507-12-5-.412-2.473.588-3.806 3-4z"/><path style="opacity:1" fill="#f9fafa" d="M96.5 3.5c.167 25.335 0 50.669-.5 76-3.106 17.775-12.94 30.275-29.5 37.5a86.624 86.624 0 0 1-16 3.5V3.5h46z"/><path style="opacity:1" fill="#1b1918" d="M75.5 9.5c-3.787-.107-6.787 1.393-9 4.5 4.371.828 8.705.66 13-.5a44.358 44.358 0 0 1-1-2c1.62.287 2.62 1.287 3 3-.825.886-1.825 1.219-3 1v14h9v6h-7c.167 20.67 0 41.336-.5 62l-6 6c-1.992-.828-3.492-2.161-4.5-4-1.989-20.974-2.656-42.307-2-64h-8v-6h8c.986-4.47 1.32-9.137 1-14h-3c-1.025-.397-1.192-1.063-.5-2 2.705-4.126 6.205-5.46 10.5-4z"/><path style="opacity:1" fill="#dc032c" d="M69.5 99.5a1041.23 1041.23 0 0 1-1-64h4c.167 21.67 0 43.336-.5 65-.67-.752-1.504-1.086-2.5-1z"/><path style="opacity:1" fill="#dd012d" d="M74.5 35.5h4c.167 20.67 0 41.336-.5 62l-3 3a2112.9 2112.9 0 0 1-.5-65z"/><path style="opacity:1" fill="#8b4844" d="M61.5 31.5c3.607 1.324 7.607 1.99 12 2 4.393-.01 8.393-.676 12-2 .904.709 1.237 1.709 1 3h-26c-.237-1.291.096-2.291 1-3z"/><path style="opacity:1" fill="#dc0624" d="M61.5 31.5h24c-3.607 1.324-7.607 1.99-12 2-4.393-.01-8.393-.676-12-2z"/><path style="opacity:1" fill="#cf1230" d="M69.5 15.5h7v14h-7v-14z"/><path style="opacity:1" fill="#697980" d="M65.5 15.5h3c.32 4.863-.014 9.53-1 14 .515-4.98-.152-9.646-2-14z"/><path style="opacity:1" fill="#d51531" d="M75.5 9.5c.473 1.406 1.473 2.073 3 2 .304.65.637 1.316 1 2a28.725 28.725 0 0 1-13 .5c2.213-3.107 5.213-4.607 9-4.5z"/><path style="opacity:1" fill="#1a0e12" d="M75.5 9.5c1.527-.073 2.527.594 3 2-1.527.073-2.527-.594-3-2z"/></svg>
